public/spirit/icon_goal.svg

<svg fill="none" height="294" viewBox="0 0 281 294" width="281" xmlns="http://www.w3.org/2000/svg" xmlns:xlink="http://www.w3.org/1999/xlink"><clipPath id="a"><path d="m0 0h281v294h-281z"/></clipPath><mask id="b" height="104" maskUnits="userSpaceOnUse" width="90" x="95" y="95"><path d="m140.01 95.7306-12.516 3.9994c-.764 2.317-2.065 4.42-3.797 6.137-1.732 1.718-3.846 3.001-6.169 3.745s-4.789.927-7.197.535c-2.407-.392-4.688-1.348-6.655-2.791l-7.7842 2.484v50.062c-.0599 13.98 10.7482 23.59 21.9872 29.843 6.981 3.833 14.416 6.774 22.131 8.753 7.699-1.981 15.12-4.922 22.087-8.753 11.223-6.249 22.029-15.867 22.029-29.849v-50.056l-7.765-2.484c-2.577 1.812-5.62 2.843-8.767 2.973h-.008c-3.281-.053-6.47-1.092-9.152-2.983-2.682-1.89-4.733-4.544-5.887-7.616l-12.537-4.0181zm.006 31.9894 6.478 12.515 13.908 2.305-9.902 10.032 2.105 13.93-12.595-6.312-12.602 6.312 2.11-13.938-9.894-10.026 13.909-2.298 6.486-12.515z" fill="#fccf69"/></mask><g clip-path="url(#a)"><path d="m236.484 67.963c24.146 28.6399 33.066 71.062 23.685 108.258-9.382 37.145-37.015 69.063-70.44 82.794-33.426 13.731-72.644 9.274-105.0446-7.173-32.4003-16.446-58.0334-44.829-65.9284-77.773-7.895-32.892 1.8969-70.345 23.9926-98.5233 22.0445-28.1788 56.3928-47.0842 93.3044-49.0823 36.86-2.0494 76.284 12.8085 100.431 41.4996z" fill="#50d2c2"/><path d="m255.771 177.661v-41.105c-.019-.458.088-.913.308-1.315s.545-.737.941-.968c.331-.304.736-.517 1.174-.617s.895-.085 1.325.046l18.739 3.996c.751.118 1.424.528 1.873 1.141.212.337.348.715.402 1.109s.024.794-.089 1.176l-6.559 26.546 6.872 30.543c.123.447.129.917.02 1.366-.109.45-.331.864-.646 1.204-.725.534-1.597.833-2.498.856h-.312l-38.104-4.568c-.751-.136-1.435-.519-1.944-1.087-.509-.569-.814-1.291-.867-2.052.179-.765.621-1.443 1.251-1.913.629-.47 1.405-.703 2.189-.656" fill="#aead9e"/><path d="m240.468 197.07h-.938c-.498-.029-.983-.173-1.416-.421-.434-.248-.804-.592-1.083-1.006-.274-.362-.447-.791-.502-1.242-.054-.452.011-.909.191-1.327 2.577-5.583 4.567-11.418 5.938-17.412.187-.74.643-1.383 1.279-1.806.636-.422 1.406-.592 2.161-.477 8.121 1.141 13.118 1.998 13.43 1.998.881.187 1.661.696 2.186 1.427.277.727.384 1.508.313 2.283-.322.571-6.568 17.983-21.559 17.983z" fill="#867e62"/><path d="m2.79214 201.64c-.43838.007-.87313-.079-1.27566-.253s-.763307-.431-1.058732-.755-.5186052-.707-.654628-1.124c-.136024-.417-.181839-.858-.134382-1.294l6.558762-30.543-6.558762-26.547c-.10233-.382-.127577-.781-.073909-1.173s.185046-.77.3863457-1.111c.2098463-.316.4862433-.582.8101263-.779.323879-.197.687089-.321 1.064009-.362l18.73949-3.997c.4302-.13.8865-.145 1.3246-.045s.8429.312 1.1739.616c.7005.568 1.1494 1.388 1.2493 2.284v41.105c.9367 2.283 6.246 14.273 15.9227 13.701.7844-.046 1.5603.186 2.1899.656.6296.471 1.0723 1.148 1.2503 1.914.3125 1.427-.9366 2.85-2.8101 3.139l-37.79082 4.568z" fill="#aead9e"/><path d="m39.9579 197.072c-14.9912 0-21.2374-17.412-21.55-17.987-.0707-.775.036-1.556.3125-2.284.5474-.708 1.3177-1.21 2.1861-1.427 0 0 4.9981-.857 13.4304-1.998.7538-.113 1.5225.058 2.1573.48s1.0901 1.064 1.2776 1.803c1.3249 6.007 3.3153 11.847 5.9339 17.412.1795.418.2453.876.1905 1.327-.0547.451-.2278.88-.502 1.243-.2783.414-.6488.758-1.0822 1.006-.4335.248-.918.392-1.4163.421z" fill="#867e62"/><path d="m21.5307 181.086c-.6659-.011-1.315-.209-1.8741-.571-.7006-.567-1.1494-1.387-1.2493-2.283v-57.376c-.0053-.699.2463-1.375.707-1.901.4606-.525 1.0981-.863 1.7915-.949.6252 0 62.7769-10.562 119.3062-10.562 56.53 0 118.682 10.562 119.307 10.562.693.086 1.331.424 1.792.949.461.526.712 1.202.706 1.901v57.376c.019.458-.088.913-.308 1.315s-.545.737-.941.968c-.331.304-.735.517-1.173.617s-.895.084-1.325-.046c-.626 0-62.465-10.562-118.058-10.562-55.9052 0-117.4318 10.276-118.0569 10.562z" fill="#e0dec6"/><path d="m140.209 243.178c53.323 0 96.549-43.227 96.549-96.549 0-53.3232-43.226-96.5499-96.549-96.5499-53.3231 0-96.5498 43.2267-96.5498 96.5499 0 53.322 43.2267 96.549 96.5498 96.549z" fill="#67787f"/><path d="m140.209 247.669c-19.984 0-39.52-5.926-56.136-17.029-16.6163-11.103-29.5668-26.883-37.2144-45.346-7.6477-18.463-9.6489-38.78-5.7501-58.38 3.8987-19.6 13.5222-37.6043 27.6532-51.7353 14.1311-14.1311 32.1353-23.7544 51.7353-27.6532 19.6-3.8987 39.917-1.8977 58.38 5.7499 18.463 7.6477 34.243 20.5985 45.346 37.2149 11.103 16.6167 17.029 36.1517 17.029 56.1357-.04 26.786-10.698 52.464-29.639 71.404-18.94 18.941-44.618 29.599-71.404 29.639zm0-197.5902c-19.096 0-37.763 5.6626-53.6403 16.2718-15.8777 10.6091-28.253 25.6884-35.5606 43.3304-7.3077 17.643-9.2193 37.056-5.4938 55.785s12.9207 35.932 26.4236 49.435c13.503 13.503 30.7071 22.699 49.4361 26.424s38.142 1.813 55.784-5.495c17.643-7.308 32.722-19.683 43.331-35.561s16.271-34.545 16.271-53.641c-.037-25.595-10.221-50.1314-28.32-68.23s-42.635-28.2825-68.231-28.3192z" fill="#434257"/><path d="m140.21 234.197v-4.491c3.603 0 7.202-.225 10.777-.673l.673 4.491c-3.8.447-7.624.672-11.45.673zm-11.452-.673c-3.786-.511-7.536-1.261-11.227-2.246l1.122-4.266c3.473.89 6.998 1.565 10.554 2.021zm33.905-2.246-1.123-4.266c3.551-.86 7.01-2.063 10.329-3.592l1.796 4.041c-3.544 1.605-7.226 2.882-11.002 3.817zm-56.134-3.817c-3.591-1.404-7.0467-3.132-10.324-5.164l2.2461-3.818c3.1269 1.754 6.3499 3.329 9.6549 4.718zm77.464-4.94-2.245-3.816c3.129-1.813 6.13-3.838 8.982-6.063l2.694 3.593c-3.002 2.299-6.153 4.399-9.431 6.284zm-97.223-6.512c-3.0032-2.361-5.8528-4.911-8.5322-7.634l3.145-3.145c2.47 2.47 5.3894 4.94 8.0835 7.185zm115.186-7.409-3.145-3.145c2.47-2.47 4.94-5.389 7.185-8.083l3.593 2.694c-2.361 3.003-4.911 5.854-7.633 8.534zm-131.3525-8.756c-2.3022-3.004-4.4035-6.156-6.2905-9.436l3.8164-2.245c1.8125 3.129 3.8381 6.13 6.0626 8.981zm145.4975-9.206-3.816-2.246c1.796-3.105 3.372-6.331 4.718-9.655l4.042 1.572c-1.464 3.528-3.114 6.976-4.944 10.329zm-156.9516-10.554c-1.3991-3.522-2.5983-7.12-3.5923-10.777l4.2657-1.123c.8595 3.552 2.063 7.011 3.5927 10.329zm165.7056-10.553-4.266-1.123c.89-3.473 1.565-6.997 2.021-10.553l4.491.674c-.671 3.368-1.344 7.185-2.243 11.002zm-171.544-11.451c-.448-3.801-.6729-7.625-.6733-11.452h4.4912c.0005 3.603.2254 7.203.6734 10.778zm174.465-11.227h-4.491v-.225c0-3.603-.225-7.202-.673-10.777l4.491-.674c.454 3.876.679 7.775.673 11.676zm-169.9709-11.222-4.4912-.675c.5105-3.786 1.2608-7.535 2.2461-11.226l4.2656 1.123c-.8983 3.814-1.5716 7.407-2.0205 10.778zm162.7869-10.329c-.885-3.516-2.01-6.967-3.368-10.329l4.041-1.796c1.4 3.522 2.599 7.12 3.593 10.778zm-157.1736-10.553-4.042-1.573c1.4035-3.593 3.1324-7.05 5.1646-10.328l3.8174 2.245c-1.9551 3.05-3.6095 6.282-4.94 9.652zm148.8666-9.431c-1.813-3.129-3.838-6.1297-6.063-8.9809l3.593-2.6941c2.302 3.0014 4.403 6.1516 6.29 9.43zm-138.0892-9.206-3.5923-2.6941c2.3619-3.0027 4.9118-5.8526 7.6343-8.5326l3.145 3.1453c-2.5672 2.5348-4.9679 5.233-7.187 8.0775zm124.8412-8.0824c-2.47-2.47-5.389-4.94-8.083-7.186l2.694-3.5925c3.003 2.3618 5.853 4.9116 8.532 7.6342zm-109.3475-7.4101-2.6953-3.5925c3.0036-2.302 6.1558-4.4034 9.4359-6.2906l2.2452 3.8166c-3.1483 2.0209-6.0676 4.0418-8.9858 6.0626zm92.2825-5.8374c-3.145-1.7968-6.29-3.3684-9.655-4.9401l1.573-4.0417c3.551 1.4951 7.001 3.2201 10.328 5.1641zm-73.647-4.9401-1.572-4.0417c3.486-1.4985 7.093-2.7003 10.781-3.5925l1.122 4.2658c-3.507.9176-6.956 2.041-10.331 3.3644zm53.667-3.3684c-3.473-.8892-6.997-1.5641-10.553-2.0209l.673-4.4899c3.786.5097 7.535 1.2595 11.225 2.245zm-32.558-2.2449-.673-4.491c3.801-.448 7.624-.6728 11.451-.6732h.224v4.4908h-.224c-3.606-.0011-7.208.2225-10.785.6694z" fill="#fa8184"/><path d="m140.21 95.2521-12.516 3.9994c-.764 2.3165-2.065 4.4195-3.797 6.1375-1.732 1.717-3.846 3-6.169 3.744s-4.789.928-7.197.536c-2.407-.392-4.688-1.349-6.655-2.791l-7.784 2.484v50.062c-.0599 13.98 10.748 23.589 21.987 29.843 6.981 3.833 14.416 6.773 22.131 8.752 7.7-1.981 15.12-4.921 22.087-8.752 11.224-6.25 22.029-15.867 22.029-29.85v-50.055l-7.765-2.484c-2.577 1.811-5.62 2.843-8.767 2.972h-.008c-3.281-.053-6.47-1.092-9.152-2.982-2.682-1.891-4.733-4.544-5.886-7.6165l-12.538-4.0181zm.007 31.9899 6.477 12.515 13.908 2.305-9.902 10.031 2.105 13.93-12.595-6.311-12.602 6.311 2.111-13.938-9.895-10.025 13.909-2.298 6.486-12.515z" fill="#fccf69"/><g mask="url(#b)"><ellipse cx="121.615" cy="162.536" fill="#000" fill-opacity=".15" rx="26.3602" ry="74.2091" transform="matrix(.91986669 -.39223116 .39223116 .91986669 -54.00627 60.725741)"/></g></g></svg>

<svg width="281" height="294" viewBox="0 0 281 294" fill="none" xmlns="http://www.w3.org/2000/svg">
<g clip-path="url(#clip0_2842_9238)">
<path d="M236.484 67.963C260.63 96.6029 269.55 139.025 260.169 176.221C250.787 213.366 223.154 245.284 189.729 259.015C156.303 272.746 117.085 268.289 84.6844 251.842C52.2841 235.396 26.651 207.013 18.756 174.069C10.861 141.177 20.6529 103.724 42.7486 75.5457C64.7931 47.3669 99.1414 28.4615 136.053 26.4634C172.913 24.414 212.337 39.2719 236.484 67.963Z" fill="#50D2C2"/>
<path d="M255.771 177.661V136.556C255.752 136.098 255.859 135.643 256.079 135.241C256.299 134.839 256.624 134.504 257.02 134.273C257.351 133.969 257.756 133.756 258.194 133.656C258.632 133.556 259.089 133.571 259.519 133.702L278.258 137.698C279.009 137.816 279.682 138.226 280.131 138.839C280.343 139.176 280.479 139.554 280.533 139.948C280.587 140.342 280.557 140.742 280.444 141.124L273.885 167.67L280.757 198.213C280.88 198.66 280.886 199.13 280.777 199.579C280.668 200.029 280.446 200.443 280.131 200.783C279.406 201.317 278.534 201.616 277.633 201.639H277.321L239.217 197.071C238.466 196.935 237.782 196.552 237.273 195.984C236.764 195.415 236.459 194.693 236.406 193.932C236.585 193.167 237.027 192.489 237.657 192.019C238.286 191.549 239.062 191.316 239.846 191.363" fill="#AEAD9E"/>
<path d="M240.468 197.07H239.53C239.032 197.041 238.547 196.897 238.114 196.649C237.68 196.401 237.31 196.057 237.031 195.643C236.757 195.281 236.584 194.852 236.529 194.401C236.475 193.949 236.54 193.492 236.72 193.074C239.297 187.491 241.287 181.656 242.658 175.662C242.845 174.922 243.301 174.279 243.937 173.856C244.573 173.434 245.343 173.264 246.098 173.379C254.219 174.52 259.216 175.377 259.528 175.377C260.409 175.564 261.189 176.073 261.714 176.804C261.991 177.531 262.098 178.312 262.027 179.087C261.705 179.658 255.459 197.07 240.468 197.07Z" fill="#867E62"/>
<path d="M2.79214 201.64C2.35376 201.647 1.91901 201.561 1.51648 201.387C1.11395 201.213 0.753173 200.956 0.457748 200.632C0.162323 200.308 -0.0608572 199.925 -0.19688 199.508C-0.332904 199.091 -0.378719 198.65 -0.331262 198.214L6.2275 167.671L-0.331262 141.124C-0.433592 140.742 -0.458839 140.343 -0.405171 139.951C-0.351503 139.559 -0.220125 139.181 -0.0188253 138.84C0.191021 138.524 0.467418 138.258 0.791301 138.061C1.11518 137.864 1.47839 137.74 1.85531 137.699L20.5948 133.702C21.025 133.572 21.4813 133.557 21.9194 133.657C22.3575 133.757 22.7623 133.969 23.0933 134.273C23.7938 134.841 24.2427 135.661 24.3426 136.557V177.662C25.2793 179.945 30.5886 191.935 40.2653 191.363C41.0497 191.317 41.8256 191.549 42.4552 192.019C43.0848 192.49 43.5275 193.167 43.7055 193.933C44.018 195.36 42.7689 196.783 40.8954 197.072L3.10458 201.64H2.79214Z" fill="#AEAD9E"/>
<path d="M39.9579 197.072C24.9667 197.072 18.7205 179.66 18.4079 179.085C18.3372 178.31 18.4439 177.529 18.7204 176.801C19.2678 176.093 20.0381 175.591 20.9065 175.374C20.9065 175.374 25.9046 174.517 34.3369 173.376C35.0907 173.263 35.8594 173.434 36.4942 173.856C37.129 174.278 37.5843 174.92 37.7718 175.659C39.0967 181.666 41.0871 187.506 43.7057 193.071C43.8852 193.489 43.951 193.947 43.8962 194.398C43.8415 194.849 43.6684 195.278 43.3942 195.641C43.1159 196.055 42.7454 196.399 42.312 196.647C41.8785 196.895 41.394 197.039 40.8957 197.068L39.9579 197.072Z" fill="#867E62"/>
<path d="M21.5307 181.086C20.8648 181.075 20.2157 180.877 19.6566 180.515C18.956 179.948 18.5072 179.128 18.4073 178.232V120.856C18.402 120.157 18.6536 119.481 19.1143 118.955C19.5749 118.43 20.2124 118.092 20.9058 118.006C21.531 118.006 83.6827 107.444 140.212 107.444C196.742 107.444 258.894 118.006 259.519 118.006C260.212 118.092 260.85 118.43 261.311 118.955C261.772 119.481 262.023 120.157 262.017 120.856V178.232C262.036 178.69 261.929 179.145 261.709 179.547C261.489 179.949 261.164 180.284 260.768 180.515C260.437 180.819 260.033 181.032 259.595 181.132C259.157 181.232 258.7 181.216 258.27 181.086C257.644 181.086 195.805 170.524 140.212 170.524C84.3068 170.524 22.7802 180.8 22.1551 181.086H21.5307Z" fill="#E0DEC6"/>
<path d="M140.209 243.178C193.532 243.178 236.758 199.951 236.758 146.629C236.758 93.3058 193.532 50.0791 140.209 50.0791C86.8859 50.0791 43.6592 93.3058 43.6592 146.629C43.6592 199.951 86.8859 243.178 140.209 243.178Z" fill="#67787F"/>
<path d="M140.209 247.669C120.225 247.669 100.689 241.743 84.073 230.64C67.4567 219.537 54.5062 203.757 46.8586 185.294C39.2109 166.831 37.2097 146.514 41.1085 126.914C45.0072 107.314 54.6307 89.3097 68.7617 75.1787C82.8928 61.0476 100.897 51.4243 120.497 47.5255C140.097 43.6268 160.414 45.6278 178.877 53.2754C197.34 60.9231 213.12 73.8739 224.223 90.4903C235.326 107.107 241.252 126.642 241.252 146.626C241.212 173.412 230.554 199.09 211.613 218.03C192.673 236.971 166.995 247.629 140.209 247.669V247.669ZM140.209 50.0788C121.113 50.0788 102.446 55.7414 86.5687 66.3506C70.691 76.9597 58.3157 92.039 51.0081 109.681C43.7004 127.324 41.7888 146.737 45.5143 165.466C49.2398 184.195 58.435 201.398 71.9379 214.901C85.4409 228.404 102.645 237.6 121.374 241.325C140.103 245.05 159.516 243.138 177.158 235.83C194.801 228.522 209.88 216.147 220.489 200.269C231.098 184.391 236.76 165.724 236.76 146.628C236.723 121.033 226.539 96.4966 208.44 78.398C190.341 60.2994 165.805 50.1155 140.209 50.0788V50.0788Z" fill="#434257"/>
<path d="M140.21 234.197V229.706C143.813 229.706 147.412 229.481 150.987 229.033L151.66 233.524C147.86 233.971 144.036 234.196 140.21 234.197V234.197ZM128.758 233.524C124.972 233.013 121.222 232.263 117.531 231.278L118.653 227.012C122.126 227.902 125.651 228.577 129.207 229.033L128.758 233.524ZM162.663 231.278L161.54 227.012C165.091 226.152 168.55 224.949 171.869 223.42L173.665 227.461C170.121 229.066 166.439 230.343 162.663 231.278V231.278ZM106.529 227.461C102.938 226.057 99.4823 224.329 96.205 222.297L98.4511 218.479C101.578 220.233 104.801 221.808 108.106 223.197L106.529 227.461ZM183.993 222.521L181.748 218.705C184.877 216.892 187.878 214.867 190.73 212.642L193.424 216.235C190.422 218.534 187.271 220.634 183.993 222.519V222.521ZM86.77 216.009C83.7668 213.648 80.9172 211.098 78.2378 208.375L81.3828 205.23C83.8528 207.7 86.7722 210.17 89.4663 212.415L86.77 216.009ZM201.956 208.6L198.811 205.455C201.281 202.985 203.751 200.066 205.996 197.372L209.589 200.066C207.228 203.069 204.678 205.92 201.956 208.6V208.6ZM70.6035 199.844C68.3013 196.84 66.2 193.688 64.313 190.408L68.1294 188.163C69.9419 191.292 71.9675 194.293 74.192 197.144L70.6035 199.844ZM216.101 190.638L212.285 188.392C214.081 185.287 215.657 182.061 217.003 178.737L221.045 180.309C219.581 183.837 217.931 187.285 216.101 190.638V190.638ZM59.1494 180.084C57.7503 176.562 56.5511 172.964 55.5571 169.307L59.8228 168.184C60.6823 171.736 61.8858 175.195 63.4155 178.513L59.1494 180.084ZM224.855 169.531L220.589 168.408C221.479 164.935 222.154 161.411 222.61 157.855L227.101 158.529C226.43 161.897 225.757 165.714 224.858 169.531H224.855ZM53.311 158.08C52.863 154.279 52.6381 150.455 52.6377 146.628H57.1289C57.1294 150.231 57.3543 153.831 57.8023 157.406L53.311 158.08ZM227.776 146.853H223.285V146.628C223.285 143.025 223.06 139.426 222.612 135.851L227.103 135.177C227.557 139.053 227.782 142.952 227.776 146.853V146.853ZM57.8051 135.631L53.3139 134.956C53.8244 131.17 54.5747 127.421 55.56 123.73L59.8256 124.853C58.9273 128.667 58.254 132.26 57.8051 135.631ZM220.592 125.302C219.707 121.786 218.582 118.335 217.224 114.973L221.265 113.177C222.665 116.699 223.864 120.297 224.858 123.955L220.592 125.302ZM63.4184 114.749L59.3764 113.176C60.7799 109.583 62.5088 106.126 64.541 102.848L68.3584 105.093C66.4033 108.143 64.7489 111.375 63.4184 114.745V114.749ZM212.285 105.318C210.472 102.189 208.447 99.1883 206.222 96.3371L209.815 93.643C212.117 96.6444 214.218 99.7946 216.105 103.073L212.285 105.318ZM74.1958 96.112L70.6035 93.4179C72.9654 90.4152 75.5153 87.5653 78.2378 84.8853L81.3828 88.0306C78.8156 90.5654 76.4149 93.2636 74.1958 96.1081V96.112ZM199.037 88.0296C196.567 85.5596 193.648 83.0896 190.954 80.8436L193.648 77.2511C196.651 79.6129 199.501 82.1627 202.18 84.8853L199.037 88.0296ZM89.6895 80.6195L86.9942 77.027C89.9978 74.725 93.15 72.6236 96.4301 70.7364L98.6753 74.553C95.527 76.5739 92.6077 78.5948 89.6895 80.6156V80.6195ZM181.972 74.7821C178.827 72.9853 175.682 71.4137 172.317 69.842L173.89 65.8003C177.441 67.2954 180.891 69.0204 184.218 70.9644L181.972 74.7821ZM108.325 69.842L106.753 65.8003C110.239 64.3018 113.846 63.1 117.534 62.2078L118.656 66.4736C115.149 67.3912 111.7 68.5146 108.325 69.838V69.842ZM161.992 66.4736C158.519 65.5844 154.995 64.9095 151.439 64.4527L152.112 59.9628C155.898 60.4725 159.647 61.2223 163.337 62.2078L161.992 66.4736ZM129.434 64.2287L128.761 59.7377C132.562 59.2897 136.385 59.0649 140.212 59.0645H140.436V63.5553H140.212C136.606 63.5542 133.004 63.7778 129.427 64.2247L129.434 64.2287Z" fill="#FA8184"/>
<path d="M140.21 95.2521L127.694 99.2515C126.93 101.568 125.629 103.671 123.897 105.389C122.165 107.106 120.051 108.389 117.728 109.133C115.405 109.877 112.939 110.061 110.531 109.669C108.124 109.277 105.843 108.32 103.876 106.878L96.092 109.362V159.424C96.0321 173.404 106.84 183.013 118.079 189.267C125.06 193.1 132.495 196.04 140.21 198.019C147.91 196.038 155.33 193.098 162.297 189.267C173.521 183.017 184.326 173.4 184.326 159.417V109.362L176.561 106.878C173.984 108.689 170.941 109.721 167.794 109.85H167.786C164.505 109.797 161.316 108.758 158.634 106.868C155.952 104.977 153.901 102.324 152.748 99.2515L140.21 95.2334V95.2521ZM140.217 127.242L146.694 139.757L160.602 142.062L150.7 152.093L152.805 166.023L140.21 159.712L127.608 166.023L129.719 152.085L119.824 142.06L133.733 139.762L140.219 127.247L140.217 127.242Z" fill="#FCCF69"/>
<mask id="mask0_2842_9238" style="mask-type:alpha" maskUnits="userSpaceOnUse" x="95" y="95" width="90" height="104">
<path d="M140.01 95.7306L127.494 99.73C126.73 102.047 125.429 104.15 123.697 105.867C121.965 107.585 119.851 108.868 117.528 109.612C115.205 110.356 112.739 110.539 110.331 110.147C107.924 109.755 105.643 108.799 103.676 107.356L95.8918 109.84V159.902C95.8319 173.882 106.64 183.492 117.879 189.745C124.86 193.578 132.295 196.519 140.01 198.498C147.709 196.517 155.13 193.576 162.097 189.745C173.32 183.496 184.126 173.878 184.126 159.896V109.84L176.361 107.356C173.784 109.168 170.741 110.199 167.594 110.329H167.586C164.305 110.276 161.116 109.237 158.434 107.346C155.752 105.456 153.701 102.802 152.547 99.73L140.01 95.7119V95.7306ZM140.016 127.72L146.494 140.235L160.402 142.54L150.5 152.572L152.605 166.502L140.01 160.19L127.408 166.502L129.518 152.564L119.624 142.538L133.533 140.24L140.019 127.725L140.016 127.72Z" fill="#FCCF69"/>
</mask>
<g mask="url(#mask0_2842_9238)">
<ellipse cx="121.615" cy="162.536" rx="26.3602" ry="74.2091" transform="rotate(-23.0934 121.615 162.536)" fill="black" fill-opacity="0.15"/>
</g>
</g>
<defs>
<clipPath id="clip0_2842_9238">
<rect width="281" height="294" fill="white"/>
</clipPath>
</defs>
</svg>
